front/public/static/landing/logos/gray/legalstart.svg

<svg fill="none" height="240" viewBox="0 0 600 240" width="600" xmlns="http://www.w3.org/2000/svg" xmlns:xlink="http://www.w3.org/1999/xlink"><mask id="a" height="98" maskUnits="userSpaceOnUse" width="436" x="82" y="71"><path d="m517.5 71.5688h-435v96.8662h435z" fill="#fff"/></mask><g fill="#364153" mask="url(#a)"><path d="m170.783 128.28h-37.608c2.215 6.025 7.77 8.366 14.643 8.366 6.318 0 12.868-1.786 18.081-5.131l7.446 12.271c-8.803 7.906-20.979 9.926-27.079 9.926-21.298 0-33.168-12.493-33.168-31.342s12.428-31.5623 30.506-31.5623c19.636 0 31.509 13.9443 27.179 37.4723zm-38.047-13.387h20.187c-.665-6.025-4.879-8.808-9.65-8.808-5.324 0-8.986 3.235-10.537 8.808zm81.912-23.3094h18.307v49.4044c0 19.517-15.198 27.436-32.616 27.436-6.318 0-18.985-3.209-24.995-5.912l5.915-15.393c4.553 2.564 10.987 4.684 18.307 4.684 8.43 0 13.088-2.898 13.201-8.703-3.882 2.343-8.656 3.348-13.422 3.348-14.643 0-25.293-9.481-25.293-27.099 0-17.619 10.76-28.215 25.401-28.215 6.213 0 11.539 1.8986 15.198 5.2417v-4.7973zm-.552 27.7724c0-6.804-4.324-10.709-9.651-10.709-5.326 0-9.43 4.013-9.43 10.709s4.104 10.71 9.43 10.71c5.327 0 9.651-3.793 9.651-10.71zm138.442-28.0011c5.059 0 9.566-3.1913 11.274-7.9778l1.372-3.8389h12.76v12.0454h11.427l-1.752 15.5624-9.675-.036v22.164c0 3.348 1.665 4.571 4.107 4.571 1.327 0 3.101-.336 4.987-1.336v19.517c-3.101 1.007-6.765 1.67-10.871 1.67-12.195 0-18.524-5.912-18.524-19.404v-27.184h-5.105zm128.07 0c5.059 0 9.566-3.1913 11.28-7.9778l1.373-3.8389h12.753v12.0454h11.438l-1.763 15.5624-9.675-.036v22.164c0 3.348 1.665 4.571 4.107 4.571 1.331 0 3.105-.336 4.991-1.336v19.517c-3.105 1.007-6.765 1.67-10.875 1.67-12.195 0-18.525-5.912-18.525-19.404v-27.184h-5.104zm-2.34 15.7581c-2.107-1.228-4.444-1.762-6.555-1.762-3.99 0-6.986 2.119-6.986 7.695v40.221h-20.19v-61.65h17.085v4.7996c2.996-3.7924 7.32-5.5755 12.09-5.5755 1.556 0 2.996.2209 4.556.5576m-190.41 23.0453v38.785h-19.342v-3.659c-3.307 2.744-8.079 4.347-13.436 4.347-12.055 0-19.802-8.009-19.802-20.938s7.852-20.817 20.028-20.817c4.558 0 8.649 1.03 11.838 2.975v-.349c0-5.948-3.865-8.924-11.151-8.924-5.35 0-8.143.198-12.244 2.598l-2.782-15.2955c6.366-2.4 13.766-3.6589 20.48-3.6589 16.953 0 26.401 8.235 26.401 24.9384l.005-.005zm-19.915 18.193c0-4.118-2.616-6.749-6.375-6.749s-6.367 2.744-6.367 6.749c0 4.006 2.616 6.75 6.367 6.75s6.375-2.628 6.375-6.75zm174.006-18.193v38.785h-19.342v-3.659c-3.308 2.744-8.081 4.347-13.436 4.347-12.053 0-19.8-8.009-19.8-20.938s7.852-20.817 20.028-20.817c4.557 0 8.648 1.03 11.835 2.975v-.349c0-5.948-3.862-8.924-11.148-8.924-5.352 0-8.145.198-12.24 2.598l-2.783-15.2955c6.364-2.4 13.766-3.6589 20.479-3.6589 16.957 0 26.404 8.235 26.404 24.9384v-.005zm-19.916 18.193c0-4.118-2.614-6.749-6.371-6.749-3.761 0-6.368 2.744-6.368 6.749 0 4.006 2.614 6.75 6.368 6.75 3.75 0 6.371-2.628 6.371-6.75z"/><g clip-rule="evenodd" fill-rule="evenodd"><path d="m314.656 153.699c-13.562-1.223-24.215-12.518-24.215-26.38v-51.5322l20.486-4.2165v49.8847c.111 3.202.648 8.372 2.932 10.653 2.315 2.31 5.989 2.945 7.557 3.197l.531.082"/><path d="m345.848 116.738-4.571-4.008c-1.667-1.334-2.338-2.339-2.338-3.451 0-1.447 1.113-2.181 3.117-2.181.935 0 1.976.002 3.134.005 1.463.002 3.115.008 4.993.008v-15.7535c-2.176 0-4.065.0127-5.856.0229-1.611.0105-3.14.018-4.722.018-13.14 0-20.938 5.9689-20.938 17.8886 0 6.015 2.004 10.914 6.906 15.478l3.68 3.451c2.225 2.004 3.116 3.342 3.116 4.676 0 1.783-1.284 2.482-3.507 2.482h-3.836l-7.305 18.325h13.764c14.03 0 22.606-7.341 22.606-20.036 0-6.907-2.559-11.92-8.24-16.93zm-235.085 17.855v19.106h-1.644c-5.761 0-11.4157-1.77-16.0252-5.229-6.4313-4.825-10.5938-12.487-10.5938-21.151v-51.5322l20.489-4.2165v49.8847c.11 3.199.647 8.372 2.931 10.653 1.144 1.139 3.127 1.953 4.843 2.485z"/></g></g></svg>

<svg width="600" height="240" viewBox="0 0 600 240" fill="none" xmlns="http://www.w3.org/2000/svg">
<mask id="mask0_1904_3475" style="mask-type:luminance" maskUnits="userSpaceOnUse" x="82" y="71" width="436" height="98">
<path d="M517.5 71.5688H82.5V168.435H517.5V71.5688Z" fill="white"/>
</mask>
<g mask="url(#mask0_1904_3475)">
<path d="M170.783 128.28H133.175C135.39 134.305 140.945 136.646 147.818 136.646C154.136 136.646 160.686 134.86 165.899 131.515L173.345 143.786C164.542 151.692 152.366 153.712 146.266 153.712C124.968 153.712 113.098 141.219 113.098 122.37C113.098 103.521 125.526 90.8077 143.604 90.8077C163.24 90.8077 175.113 104.752 170.783 128.28ZM132.736 114.893H152.923C152.258 108.868 148.044 106.085 143.273 106.085C137.949 106.085 134.287 109.32 132.736 114.893ZM214.648 91.5836H232.955V140.988C232.955 160.505 217.757 168.424 200.339 168.424C194.021 168.424 181.354 165.215 175.344 162.512L181.259 147.119C185.812 149.683 192.246 151.803 199.566 151.803C207.996 151.803 212.654 148.905 212.767 143.1C208.885 145.443 204.111 146.448 199.345 146.448C184.702 146.448 174.052 136.967 174.052 119.349C174.052 101.73 184.812 91.134 199.453 91.134C205.666 91.134 210.992 93.0326 214.651 96.3757V91.5784L214.648 91.5836ZM214.096 119.356C214.096 112.552 209.772 108.647 204.445 108.647C199.119 108.647 195.015 112.66 195.015 119.356C195.015 126.052 199.119 130.066 204.445 130.066C209.772 130.066 214.096 126.273 214.096 119.356ZM352.538 91.3549C357.597 91.3549 362.104 88.1636 363.812 83.3771L365.184 79.5382H377.944V91.5836H389.371L387.619 107.146L377.944 107.11V129.274C377.944 132.622 379.609 133.845 382.051 133.845C383.378 133.845 385.152 133.509 387.038 132.509V152.026C383.937 153.033 380.273 153.696 376.167 153.696C363.972 153.696 357.643 147.784 357.643 134.292V107.108H352.538V91.3549ZM480.608 91.3549C485.667 91.3549 490.174 88.1636 491.888 83.3771L493.261 79.5382H506.014V91.5836H517.452L515.689 107.146L506.014 107.11V129.274C506.014 132.622 507.679 133.845 510.121 133.845C511.452 133.845 513.226 133.509 515.112 132.509V152.026C512.007 153.033 508.347 153.696 504.237 153.696C492.042 153.696 485.712 147.784 485.712 134.292V107.108H480.608V91.3549ZM478.268 107.113C476.161 105.885 473.824 105.351 471.713 105.351C467.723 105.351 464.727 107.47 464.727 113.046V153.267H444.537V91.617H461.622V96.4166C464.618 92.6242 468.942 90.8411 473.712 90.8411C475.268 90.8411 476.708 91.062 478.268 91.3987M287.858 114.444V153.229H268.516V149.57C265.209 152.314 260.437 153.917 255.08 153.917C243.025 153.917 235.278 145.908 235.278 132.979C235.278 120.05 243.13 112.162 255.306 112.162C259.864 112.162 263.955 113.192 267.144 115.137V114.788C267.144 108.84 263.279 105.864 255.993 105.864C250.643 105.864 247.85 106.062 243.749 108.462L240.967 93.1665C247.333 90.7665 254.733 89.5076 261.447 89.5076C278.4 89.5076 287.848 97.7426 287.848 114.446L287.853 114.441L287.858 114.444ZM267.943 132.637C267.943 128.519 265.327 125.888 261.568 125.888C257.809 125.888 255.201 128.632 255.201 132.637C255.201 136.643 257.817 139.387 261.568 139.387C265.319 139.387 267.943 136.759 267.943 132.637ZM441.949 114.444V153.229H422.607V149.57C419.299 152.314 414.526 153.917 409.171 153.917C397.118 153.917 389.371 145.908 389.371 132.979C389.371 120.05 397.223 112.162 409.399 112.162C413.956 112.162 418.047 113.192 421.234 115.137V114.788C421.234 108.84 417.372 105.864 410.086 105.864C404.734 105.864 401.941 106.062 397.846 108.462L395.063 93.1665C401.427 90.7665 408.829 89.5076 415.542 89.5076C432.499 89.5076 441.946 97.7426 441.946 114.446V114.441L441.949 114.444ZM422.033 132.637C422.033 128.519 419.419 125.888 415.662 125.888C411.901 125.888 409.294 128.632 409.294 132.637C409.294 136.643 411.908 139.387 415.662 139.387C419.412 139.387 422.033 136.759 422.033 132.637Z" fill="#364153"/>
<path fill-rule="evenodd" clip-rule="evenodd" d="M314.656 153.699C301.094 152.476 290.441 141.181 290.441 127.319V75.7868L310.927 71.5703V121.455C311.038 124.657 311.575 129.827 313.859 132.108C316.174 134.418 319.848 135.053 321.416 135.305L321.947 135.387" fill="#364153"/>
<path fill-rule="evenodd" clip-rule="evenodd" d="M345.848 116.738L341.277 112.73C339.61 111.396 338.939 110.391 338.939 109.279C338.939 107.832 340.052 107.098 342.056 107.098C342.991 107.098 344.032 107.1 345.19 107.103C346.653 107.105 348.305 107.111 350.183 107.111V91.3575C348.007 91.3575 346.118 91.3702 344.327 91.3804C342.716 91.3909 341.187 91.3984 339.605 91.3984C326.465 91.3984 318.667 97.3673 318.667 109.287C318.667 115.302 320.671 120.201 325.573 124.765L329.253 128.216C331.478 130.22 332.369 131.558 332.369 132.892C332.369 134.675 331.085 135.374 328.862 135.374H325.026L317.721 153.699H331.485C345.515 153.699 354.091 146.358 354.091 133.663C354.091 126.756 351.532 121.743 345.851 116.733L345.848 116.738ZM110.763 134.593V153.699H109.119C103.358 153.699 97.7033 151.929 93.0938 148.47C86.6625 143.645 82.5 135.983 82.5 127.319V75.7868L102.989 71.5703V121.455C103.099 124.654 103.636 129.827 105.92 132.108C107.064 133.247 109.047 134.061 110.763 134.593Z" fill="#364153"/>
</g>
</svg>
